X:220
R:Visa
B:August Bondesons Visbok nr 220
Z:[[Profiles/Tommy Rådberg]]
T:Adjö, farväl! För sista gång
M:6/8
L:1/8
K:D
A|A2AF2d|A2AE2F|G2GA2E|F3z2A|f2de2f|d2BG2G|A2Ac2c|d3z2A|f2de2f|d2BG2G|A2Ac2c|d3z2|]

